X: 8
T: KITTY McGEE
S: "Community Dances Manual 5", EFDSS, Michael Bell ed., 1957 p.9
R: jig
Z: 2010 John Chambers <jc:trillian.mit.edu>
M: 6/8
L: 1/8
K: D
"A"|: A |\
"D"d2d AFA | "D"d3 "A7(Em)"efg | "D"f2d "Em(E7)"e2d | "A"cec "A7"ABc | "D"d2d AFA |
"D"d3 "A7(Em)"efg | "D"f2d "A7"e2c | "D"ddd d2 "B":: A | "D"d2f agf | "Em"e2f "A7"g3 |
"D"f2d "Em(E7)"e2d | "A"cAA "A7"A3 | "D"aaa "G"g2f | "Em"e2f "A7"g3 | "D"f2d "A7"e2c | "D"ddd d2 :|


%%sep 5 1 500

%%sep 1 1 500

